X: 8785
T: Cuckoo's Nest, The
R: hornpipe
M: 4/4
K: Dmajor
|:(3ABc|d2dc dfed|c2AB A2AB|=c2cB cedc|BGAF G2FG|
AFDF AFAc|fdAF G2FG|ABAG FDEC|D2DE D2:|
|:B2|AFDF AFDF|AFAc d3A|GE=CE GECE|GEGB =c3B|
AFDF AFAc|fdAF G2FG|ABAG FDEC|D2DE D2:|

